X:1
T:Rolling In The Ryegrass
R:reel
M:4/4
L:1/8
K:D
|:ABAF DFAF|~G2BG dGBG|FAAF DFAF|GBAF EFD2:|
|:ABde ~f2fd|~g2ge fedB|ABde ~f2df|afdf efd2:|